static/assets/img/icons/theme/electric/highvoltage.svg

<svg height="24" viewBox="0 0 24 24" width="24" xmlns="http://www.w3.org/2000/svg"><g fill="none" fill-rule="evenodd"><path d="m0 0h24v24h-24z" opacity="0"/><path d="m2.76702366 20c-.17500141 0-.34693876-.0459251-.49863236-.1331864-.47872792-.2753871-.64356826-.886718-.36818121-1.365446l9.23303021-16.05053451c.0880617-.15308491.2150943-.28011787.368179-.36817997.4787272-.27538824 1.0900586-.11054943 1.3654469.3681778l9.2330837 16.05053458c.0872621.1516941.1331876.3236322.1331876.4986345 0 .5522847-.4477152 1-1 1zm8.23297634-2 4-6h-2.0555556v-4l-3.9444444 6h2z" fill="#000"/></g></svg>

<svg width="24px" height="24px" viewBox="0 0 24 24" version="1.1" xmlns="http://www.w3.org/2000/svg" xmlns:xlink="http://www.w3.org/1999/xlink">
    <title>Icon For Highvoltage</title>
    <g stroke="none" stroke-width="1" fill="none" fill-rule="evenodd">
        <rect opacity="0" x="0" y="0" width="24" height="24"></rect>
        <path d="M2.76702366,20 C2.59202225,20 2.4200849,19.9540749 2.2683913,19.8668136 C1.78966338,19.5914265 1.62482304,18.9800956 1.90021009,18.5013676 L11.1332403,2.45083309 C11.221302,2.29774818 11.3483346,2.17071522 11.5014193,2.08265312 C11.9801465,1.80726488 12.5914779,1.97210369 12.8668662,2.45083092 L22.0999499,18.5013655 C22.187212,18.6530596 22.2331375,18.8249977 22.2331375,19 C22.2331375,19.5522847 21.7854223,20 21.2331375,20 L2.76702366,20 Z M11,18 L15,12 L12.9444444,12 L12.9444444,8 L9,14 L11,14 L11,18 Z" fill="#000000"></path>
    </g>
</svg>
